X: 42367
T: Welcome To The Trossachs
R: strathspey
M: 4/4
K: Amajor
A>B|c3 B A>GA<c|e<ac>d e2 A>B|c2 e>c d<fe>c|A>GA<c B>EA<B|
c3 B A>GA<c|e<ac>d e2 A>B|c2 e>c B>AB<c|E2 A2 A2:|
|:c>e|g>b (3agf e>f (3ecB|A>GA<B c2 e>c|d>cd>f e<cB>A|F<BB>c B2 c>e|
g>a (3agf e>f (3ecA|d>cd<f e2 c<A|F>Ad<f e>cB<c|E2 A2 A2:|
|:A>B|c>BA>G (3AA,C (3EAc|e<ac>d e2 A>B|c<Ae>c d<fe>c|B>FG>A B2 A>B|
c>BA>G (3AA,C (3EAc|e<ac>d e2 A>B|c2 e>c B>AB<c|E2 A2 A2:|
|:c>e|a>ga>b a>ec>B|A>GA>B c<Ae>c|d>cd>f e<ca>c|
[1B>e^d>f e>fg<b|a>ga>b a>ec>A|F>Ad<f e2 c<A|F>Ad<f e>cB<c|E2 A2 A2:|
[2B>e^d>f e>cd<B|A>ce<c d>fa<f|e<ag<b a>ec>A|F>Ad<f e>cB<c|E2 A2 A2||

